assets/images/icon-quote.svg

<svg fill="none" height="60" viewBox="0 0 77 60" width="77" xmlns="http://www.w3.org/2000/svg"><path d="m41.7882 37.5719c0-8.4345 2.8115-15.9745 8.4345-22.6198 5.623-6.64539 13.099-11.62941 22.4281-14.95209933l3.4505 8.05110933c-2.5559 1.40576-5.3035 3.45049-8.2428 6.13419-3.0671 2.8115-5.8786 6.0064-8.4345 9.5847l9.3929 6.3259c2.9393 2.0447 4.9202 4.2172 5.9425 6.5175 1.0224 2.4281 1.5336 4.984 1.5336 7.6678 0 2.1725-.4473 4.2172-1.3419 6.1341-.8946 1.917-2.1086 3.5783-3.6422 4.9841-1.5335 1.4057-3.2587 2.492-5.1757 3.2588-1.9169.8945-3.8977 1.3418-5.9425 1.3418-3.1949 0-5.8786-.639-8.0511-1.9169-2.1725-1.278-4.0256-2.492-5.5591-3.6422-1.6613-2.5559-2.8754-5.3035-3.6422-8.2428-.7667-2.8115-1.1501-5.6869-1.1501-8.6262zm-41.78917227 0c-.00000074-8.4345 2.81149227-15.9744 8.43450227-22.6198 5.62297-6.64538 13.09907-11.62941 22.42807-14.95209568l3.4505 8.05111568c-2.5559 1.40575-5.3035 3.45048-8.2428 6.13418-3.0671 2.8115-5.8786 6.0064-8.4345 9.5847l9.393 6.3259c2.9393 2.0447 4.9201 4.2172 5.9425 6.5175 1.0223 2.4281 1.5335 4.9841 1.5335 7.6678 0 2.1725-.4473 4.2172-1.3418 6.1341-.8946 1.917-2.1087 3.5783-3.6422 4.9841-1.5335 1.4057-3.2588 2.492-5.1757 3.2588-1.917.8945-3.8978 1.3418-5.9425 1.3418-3.1949 0-5.8786-.639-8.0511-1.9169-2.17256-1.278-4.02559-2.492-5.55914-3.6422-1.66134-2.5559-2.8754-5.3035-3.64217-8.2428-.76678-2.8115-1.15016201-5.6869-1.15016227-8.6262z" fill="#dbc1be"/></svg>

<svg width="77" height="60" viewBox="0 0 77 60" fill="none" xmlns="http://www.w3.org/2000/svg">
<path d="M41.7882 37.5719C41.7882 29.1374 44.5997 21.5974 50.2227 14.9521C55.8457 8.30671 63.3217 3.32269 72.6508 6.68801e-07L76.1013 8.05111C73.5454 9.45687 70.7978 11.5016 67.8585 14.1853C64.7914 16.9968 61.9799 20.1917 59.424 23.77L68.8169 30.0959C71.7562 32.1406 73.7371 34.3131 74.7594 36.6134C75.7818 39.0415 76.293 41.5974 76.293 44.2812C76.293 46.4537 75.8457 48.4984 74.9511 50.4153C74.0565 52.3323 72.8425 53.9936 71.3089 55.3994C69.7754 56.8051 68.0502 57.8914 66.1332 58.6582C64.2163 59.5527 62.2355 60 60.1907 60C56.9958 60 54.3121 59.361 52.1396 58.0831C49.9671 56.8051 48.114 55.5911 46.5805 54.4409C44.9192 51.885 43.7051 49.1374 42.9383 46.1981C42.1716 43.3866 41.7882 40.5112 41.7882 37.5719ZM-0.000972269 37.5719C-0.000973006 29.1374 2.81052 21.5975 8.43353 14.9521C14.0565 8.30672 21.5326 3.32269 30.8616 4.32212e-06L34.3121 8.05112C31.7562 9.45687 29.0086 11.5016 26.0693 14.1853C23.0022 16.9968 20.1907 20.1917 17.6348 23.77L27.0278 30.0959C29.9671 32.1406 31.9479 34.3131 32.9703 36.6134C33.9926 39.0415 34.5038 41.5975 34.5038 44.2812C34.5038 46.4537 34.0565 48.4984 33.162 50.4153C32.2674 52.3323 31.0533 53.9936 29.5198 55.3994C27.9863 56.8051 26.261 57.8914 24.3441 58.6582C22.4271 59.5527 20.4463 60 18.4016 60C15.2067 60 12.523 59.361 10.3505 58.0831C8.17794 56.8051 6.32491 55.5911 4.79136 54.4409C3.13002 51.885 1.91596 49.1374 1.14919 46.1981C0.38241 43.3866 -0.000972012 40.5112 -0.000972269 37.5719Z" fill="#DBC1BE"/>
</svg>
